src/img/volume-up.svg

<svg width="16" height="16" viewBox="0 0 16 16" fill="none" xmlns="http://www.w3.org/2000/svg">
<path d="M11.5355 14.0104C13.0737 12.4722 14.0251 10.3472 14.0251 8.00003C14.0251 5.65282 13.0737 3.52782 11.5355 1.98962L10.8284 2.69673C12.1857 4.05396 13.0251 5.92896 13.0251 8.00003C13.0251 10.0711 12.1857 11.9461 10.8284 13.3033L11.5355 14.0104Z" fill="black"/>
<path d="M10.1213 12.5962C11.2976 11.42 12.0251 9.79496 12.0251 8.00003C12.0251 6.20511 11.2976 4.58011 10.1213 3.40384L9.41421 4.11094C10.4095 5.10625 11.0251 6.48125 11.0251 8.00003C11.0251 9.51882 10.4095 10.8938 9.41421 11.8891L10.1213 12.5962Z" fill="black"/>
<path d="M10.0251 8.00003C10.0251 9.24267 9.52145 10.3677 8.70711 11.182L8 10.4749C8.63338 9.84153 9.02513 8.96653 9.02513 8.00003C9.02513 7.03353 8.63338 6.15853 8 5.52516L8.70711 4.81805C9.52145 5.63239 10.0251 6.75739 10.0251 8.00003Z" fill="black"/>
<path d="M7 4C7 3.8078 6.88983 3.63261 6.71659 3.54935C6.54336 3.46609 6.33774 3.4895 6.18765 3.60957L3.82461 5.5H1.5C1.22386 5.5 1 5.72386 1 6V10C1 10.2761 1.22386 10.5 1.5 10.5H3.82461L6.18765 12.3904C6.33774 12.5105 6.54336 12.5339 6.71659 12.4507C6.88983 12.3674 7 12.1922 7 12V4ZM4.31235 6.39044L6 5.04032V10.9597L4.31235 9.60957C4.22369 9.53865 4.11354 9.5 4 9.5H2V6.5H4C4.11354 6.5 4.22369 6.46136 4.31235 6.39044Z" fill="black"/>
</svg>

<svg width="16" height="16" viewBox="0 0 16 16" fill="none" xmlns="http://www.w3.org/2000/svg"><path d="M11.54 14.01a8.47 8.47 0 0 0 0-12.02l-.71.7a7.48 7.48 0 0 1 0 10.61l.7.71Z" fill="#000"/><path d="M10.12 12.6a6.48 6.48 0 0 0 0-9.2l-.7.71a5.48 5.48 0 0 1 0 7.78l.7.7Z" fill="#000"/><path d="M10.03 8c0 1.24-.5 2.37-1.32 3.18l-.71-.7a3.49 3.49 0 0 0 0-4.95l.7-.71a4.49 4.49 0 0 1 1.33 3.18Zm-3.03-4a.5.5 0 0 0-.81-.39l-2.37 1.89h-2.32a.5.5 0 0 0-.5.5v4c0 .28.22.5.5.5h2.32l2.37 1.89a.5.5 0 0 0 .81-.39v-8Zm-2.69 2.39 1.69-1.35v5.92l-1.69-1.35a.5.5 0 0 0-.31-.11h-2v-3h2a.5.5 0 0 0 .31-.11Z" fill="#000"/></svg>
